X:0302
M:2/4
L:1/16
Q:1/4=120
K:G
fg|a2A2A2d2   |B2G2 G2fg|a2A2 A2Bc|dcBA G2
fg|a2A2a2A2   |a2A2 A2fg|agfe dedc|B2G2G2||

